X:1
T:Farewell to the Unicorn
T:Perth Amboy, 1699
L:1/8
M:C
C:T. S. Macdonald
N: To be played A-A-B1-B2-A-B2.
K:Dm
%%graceslurs 0
%%text Slow
"A" DE | F3 G A2 d2 | c2 A2 A2 dc | B3 A G3 F | E2 G2 G2 DE | F3 G A2 d2 | f2 a2 a2 ba | g2 e2 a3 {ba} g | f2 d2 {^c} d2 :|
"B1" fg | a3 f e3 d | c2 A2 A2 ga | b3 c' d'3 c' | b2 g2 g2 fg | a3 g a2 b2 | c'2 a2 a2 ba | g2 e2 a3 {ba} g | f2 d2 {^c} d2 |
"B2" fg | afed cBAG | F2 A2 A2 ga | babc' d'c'ba | b2 g2 g2 [af]g | f3 e d3 A | F2 A2 [DA]2 EF | G2 E2 AGFE | F2 D2 D2 |]

